X: 24305
T: Lost, The
R: polka
M: 2/4
K: Gmajor
|:BA BA|G2 GA|BA BG|d2 d^c/d/|
ed ed|A2 AB|cd/c/ BA|1 GF GA:|2 GA Bc||
|:d^c/d/ ge|d2 dB|de/d/ cA|AB c/B/A|
GB/d/ ed|A2 AB|cd/c/ BA|1 GA Bc:|2 GF GA||

